!!! OTL: Berkowitz530
!!! Chapter: 1
!!! Section: IV
!!! Page: 133
!!! Mode: 
!!! Encoder: DJB
**kern
*staff1
*I"Piano
=1-
*clefG2
*k[b-]
*F:
*M3/4
8f/
4c/
8f/
4b-\
=2
8a/
4cc\
8a/
4e/
=3
8d/
4g/
8cc\
4bn\
=4
8c/
4g/
8b-\
4a/
=5
8B-/
4e-/
8g/
[4cc\
=6
4cc\]
4ee-\
4b-\
=7
4dd-\
4a-/
4b-\
=8
8cc\
4a/
8c/
[4d/
=9
4d/]
4c/
[4g/
=10
!!linebreak:original
4g/]
4a/
4b-\
=11
8cc\
4a/
8c/
4f/
==
*-
